assets/images/email.svg

<svg viewBox="0 0 246.52 187.6" xmlns="http://www.w3.org/2000/svg" xmlns:xlink="http://www.w3.org/1999/xlink"><linearGradient id="a" gradientUnits="userSpaceOnUse" x2="246.52" y1="93.8" y2="93.8"><stop offset="0" stop-color="#7db429"/><stop offset="1" stop-color="#abc910"/></linearGradient><linearGradient id="b" x1="28.44" x2="218.15" xlink:href="#a" y1="93.84" y2="93.84"/><path d="m216.42 0h-186.27a30.18 30.18 0 0 0 -30.15 30.15v127.31a30.17 30.17 0 0 0 30.15 30.14h186.22a30.17 30.17 0 0 0 30.15-30.14v-127.26a30.15 30.15 0 0 0 -30.1-30.2zm16.38 157.46a16.39 16.39 0 0 1 -16.38 16.37h-186.27a16.39 16.39 0 0 1 -16.38-16.37v-127.26a16.4 16.4 0 0 1 16.38-16.38h186.22a16.39 16.39 0 0 1 16.37 16.38v127.26z" fill="url(#a)"/><path d="m155.47 92.22 60.29-54.07a6.9 6.9 0 1 0 -9.23-10.25l-83.14 74.62-16.23-14.52c0-.05-.1-.1-.1-.16a9.43 9.43 0 0 0 -1.12-1l-66-59.07a6.9 6.9 0 1 0 -9.18 10.3l61 54.53-60.76 56.95a6.91 6.91 0 0 0 -.3 9.74 7 7 0 0 0 5 2.2 6.89 6.89 0 0 0 4.7-1.84l61.72-57.65 16.72 15a6.89 6.89 0 0 0 9.19 0l17.19-15.41 61.31 58.25a6.9 6.9 0 0 0 9.74-.25 6.91 6.91 0 0 0 -.26-9.74z" fill="url(#b)"/></svg>

<svg xmlns="http://www.w3.org/2000/svg" xmlns:xlink="http://www.w3.org/1999/xlink" viewBox="0 0 246.52 187.6"><defs><style>.cls-1{fill:url(#linear-gradient);}.cls-2{fill:url(#linear-gradient-2);}</style><linearGradient id="linear-gradient" y1="93.8" x2="246.52" y2="93.8" gradientUnits="userSpaceOnUse"><stop offset="0" stop-color="#7db429"/><stop offset="1" stop-color="#abc910"/></linearGradient><linearGradient id="linear-gradient-2" x1="28.44" y1="93.84" x2="218.15" y2="93.84" xlink:href="#linear-gradient"/></defs><title>mail_footer</title><g id="Layer_2" data-name="Layer 2"><g id="Layer_1-2" data-name="Layer 1"><path class="cls-1" d="M216.42,0H30.15A30.18,30.18,0,0,0,0,30.15V157.46A30.17,30.17,0,0,0,30.15,187.6H216.37a30.17,30.17,0,0,0,30.15-30.14V30.2A30.15,30.15,0,0,0,216.42,0ZM232.8,157.46a16.39,16.39,0,0,1-16.38,16.37H30.15a16.39,16.39,0,0,1-16.38-16.37V30.2A16.4,16.4,0,0,1,30.15,13.82H216.37A16.39,16.39,0,0,1,232.74,30.2V157.46Z"/><path class="cls-2" d="M155.47,92.22l60.29-54.07a6.9,6.9,0,1,0-9.23-10.25l-83.14,74.62L107.16,88c0-.05-.1-.1-.1-.16a9.43,9.43,0,0,0-1.12-1l-66-59.07a6.9,6.9,0,1,0-9.18,10.3l61,54.53L31,149.55a6.91,6.91,0,0,0-.3,9.74,7,7,0,0,0,5,2.2,6.89,6.89,0,0,0,4.7-1.84L102.12,102l16.72,15a6.89,6.89,0,0,0,9.19,0l17.19-15.41,61.31,58.25a6.9,6.9,0,0,0,9.74-.25,6.91,6.91,0,0,0-.26-9.74Z"/></g></g></svg>
